X: 86
T:Missa Faisant regretz / Kyrie
N: Derived from Jos0801a-Missa_Faisant_regretz-Kyrie.krn
C: Josquin des Prez
%%abc-version 2.0
%%abcx-abcm2ps-target-version 5.9.1 (29 Sep 2008)
%%abc-creator hum2abc beta
%%abcx-conversion-date 2019/02/12 16:15:42
%%abc-edited-by Jesse Rodin
%%abc-edited-by Jesse Rodin; Victoria Chang 2011/09/06
%%abcx-initial-encoding-date 2011/09/16/
%%humdrum-veritas 2100503359
%%humdrum-veritas-data 3427779187
%%linebreak <none>
%%barnumbers 0
L: 1/4
M: 3/1
Q: 1/2=120
%%staves [1 2 3 4]
V: 1 clef=treble
V: 2 clef=treble-8
V: 3 clef=treble-8
V: 4 clef=bass
K: F
[V:1] z12 | 
[V:2] z12 | 
[V:3] z12 | 
[V:4] F,4D,4E,4 | 
[V:1] z12 | 
[V:2] d4_e2d4c2 | 
[V:3] z12 | 
[V:4] D,4z2F,2D,2E,2 | 
[V:1] z12 | 
[V:2] d8G4 | 
[V:3] z12 | 
[V:4] D,2F,4D,2E,4 | 
[V:1] z12 | 
[V:2] A4B4c4 | 
[V:3] f4d4e4 | 
[V:4] D,8C,4 | 
[V:1] d4_e2d4c2 | 
[V:2] A2d2c2A2B2A2 | 
[V:3] d4z2f2d2e2 | 
[V:4] D,2B,,2C,2D,2z2A,,2 | 
[V:1] d8G4 | 
[V:2] z2d6c3B | 
[V:3] d2f4d2e4 | 
[V:4] B,,8C,4 | 
[V:1] z2B2c2d2_edcB | 
[V:2] A2G2F4z2E2 | 
[V:3] d4z2B2G2A2- | 
[V:4] D,2G,,2A,,2B,,2C,4 | 
[V:1] A2B3AG2F2G2- | 
[V:2] F2G2D2d4c2 | 
[V:3] A2G2z2B4G2 | 
[V:4] D,2G,,2B,,3C,D,2_E,2 | 
[V:1] G2^F2G2B2c2d2 | 
[V:2] d3cBAG2z2d2 | 
[V:3] A4G4z2B2 | 
[V:4] D,4_E,3D,C,2B,,2 | 
[V:1] _edcBA2B3AG2 | 
[V:2] cBAGF2G2D2d2- | 
[V:3] G2A4G2z2B2- | 
[V:4] C,4D,2G,,2B,,3C, | 
[V:1] F2G4^F2G2B2- | 
[V:2] d2c2d8 | 
[V:3] B2G2A4G4 | 
[V:4] D,2_E,2D,4z2G,,2 | 
[V:1] BAG2F2G4^F2 | 
[V:2] z2d4c2d4- | 
[V:3] z2B4G2A4 | 
[V:4] B,,3C,D,2_E,2D,4 | 
[V:1] G12 ||  
[V:2] d12 ||  
[V:3] G12 ||  
[V:4] G,,12 ||  
[V:1] [M:2/1]G8 | 
[V:2] [M:2/1]z8 | 
[V:3] [M:2/1]z8 | 
[V:4] [M:2/1]z8 | 
[V:1] F8 | 
[V:2] d8 | 
[V:3] z8 | 
[V:4] z8 | 
[V:1] c8 | 
[V:2] c8 | 
[V:3] z8 | 
[V:4] z8 | 
[V:1] B6AG | 
[V:2] g8 | 
[V:3] z8 | 
[V:4] z8 | 
[V:1] A3Bcdc2- | 
[V:2] f6e2 | 
[V:3] z8 | 
[V:4] z8 | 
[V:1] c2A2B2G2 | 
[V:2] f4g4 | 
[V:3] z8 | 
[V:4] z8 | 
[V:1] A3BA2G2- | 
[V:2] f2d2f2e2- | 
[V:3] z8 | 
[V:4] z8 | 
[V:1] GFEDE4 | 
[V:2] edd4^c2 | 
[V:3] z8 | 
[V:4] z8 | 
[V:1] D8 | 
[V:2] d8- | 
[V:3] z4f4- | 
[V:4] D,8- | 
[V:1] z4F4 | 
[V:2] d8 | 
[V:3] f4d4 | 
[V:4] D,8 | 
[V:1] G6A2 | 
[V:2] z8 | 
[V:3] e8 | 
[V:4] C,8 | 
[V:1] B8 | 
[V:2] z8 | 
[V:3] d8 | 
[V:4] G,8 | 
[V:1] A4B4 | 
[V:2] z8 | 
[V:3] f4d4 | 
[V:4] F,4G,4- | 
[V:1] G4B4 | 
[V:2] z8 | 
[V:3] e4d4 | 
[V:4] G,8 | 
[V:1] A4B4 | 
[V:2] z8 | 
[V:3] f4d4 | 
[V:4] F,4G,4- | 
[V:1] G6A2 | 
[V:2] z8 | 
[V:3] e8 | 
[V:4] G,4C,4 | 
[V:1] B8 | 
[V:2] z8 | 
[V:3] d8- | 
[V:4] G,8 | 
[V:1] A4B4- | 
[V:2] z8 | 
[V:3] d8 | 
[V:4] F,4G,4- | 
[V:1] B2AGB4 | 
[V:2] d8- | 
[V:3] B4G4 | 
[V:4] G,8 | 
[V:1] A4B4 | 
[V:2] d8 | 
[V:3] A4G4- | 
[V:4] F,4G,4 | 
[V:1] G4z2B2- | 
[V:2] _e6d2 | 
[V:3] G4B4 | 
[V:4] C,4G,4 | 
[V:1] BAG2F2A2- | 
[V:2] d6c2 | 
[V:3] G4A4- | 
[V:4] z2G,2D,2F,2- | 
[V:1] AGF2E2G2- | 
[V:2] c6B2 | 
[V:3] A4G4 | 
[V:4] F,4C,2_E,2- | 
[V:1] GFE2D2F2- | 
[V:2] B6A2 | 
[V:3] z4F4 | 
[V:4] E,4B,,2D,2- | 
[V:1] FED2C3D | 
[V:2] A6G2 | 
[V:3] D4E4- | 
[V:4] D,4A,,2C,2- | 
[V:1] EFG3ABG | 
[V:2] G4B4 | 
[V:3] E4D4 | 
[V:4] C,4G,,4 | 
[V:1] A2F3ED2- | 
[V:2] A3GA2B2 | 
[V:3] F4D4 | 
[V:4] D,8 | 
[V:1] D2C2D4 | 
[V:2] G4B4 | 
[V:3] E4D4 | 
[V:4] z8 | 
[V:1] C4D4 | 
[V:2] A4B4- | 
[V:3] F4D4 | 
[V:4] z8 | 
[V:1] G,8 | 
[V:2] B2A2G4- | 
[V:3] E8 | 
[V:4] z8 | 
[V:1] A,8 | 
[V:2] G2^FE^F3G | 
[V:3] D8- | 
[V:4] z8 | 
[V:1] B,8 ||  
[V:2] G8 ||  
[V:3] D8 ||  
[V:4] G,,8 ||  
[V:1] [M:3/1]z4z4G3A | 
[V:2] [M:3/1]f4d4e4 | 
[V:3] [M:3/1]z12 | 
[V:4] [M:3/1]z12 | 
[V:1] BAB3AG4^F2 | 
[V:2] d6B2c3d | 
[V:3] B4G4A4 | 
[V:4] z12 | 
[V:1] G8c4 | 
[V:2] _e2d4g2e2f2 | 
[V:3] G4z4z4 | 
[V:4] B,4G,4A,4 | 
[V:1] B6AGc4 | 
[V:2] g2d4g2e2f2 | 
[V:3] B4G4A4 | 
[V:4] G,4z4z4 | 
[V:1] B4A2G2A4 | 
[V:2] Bcdefdg4^f2 | 
[V:3] G4z4z4 | 
[V:4] z2G,2F,2E,2D,4 | 
[V:1] G4z2B2c3d | 
[V:2] g8e2f2 | 
[V:3] B4G4A4 | 
[V:4] G,8z4 | 
[V:1] _e2d4B2c2A2 | 
[V:2] g3fd2_e2c4 | 
[V:3] G4z4z4 | 
[V:4] z2B,4G,2A,4 | 
[V:1] B3AF2G2z2G2- | 
[V:2] B2d4B2c2_e2- | 
[V:3] z2B4G2A2G2 | 
[V:4] G,3F,D,2E,2C,4 | 
[V:1] G2G2F2G2E2G2 | 
[V:2] edd4B2c2B2 | 
[V:3] z2B4G2A2G2 | 
[V:4] G,3F,D,2E,2C,2E,2 | 
[V:1] F2G2D2G4F2 | 
[V:2] d4B2c2d4 | 
[V:3] z2B4G2A4 | 
[V:4] D,2G,4E,2D,4 | 
[V:1] B3AF2G2E2G2 | 
[V:2] B2d4B2c2B2 | 
[V:3] G2B4G2A2G2 | 
[V:4] G,3F,D,2E,2C,2E,2 | 
[V:1] F2G2D2G4^F2 | 
[V:2] d4B2c2d4- | 
[V:3] z2B4G2A4 | 
[V:4] D,2G,4E,2D,4 | 
[V:1] G12 |]  
[V:2] d12 |]  
[V:3] G12 |]  
[V:4] G,,12 |]  



